Adwaita++/emblems/16/emblem-dropbox-infinite.svg

<svg fill="none" height="16" viewBox="0 0 16 16" width="16" xmlns="http://www.w3.org/2000/svg">
  <path d="m13.6 1h-11.2c-.7732 0-1.4.6268-1.4 1.4v11.2c0 .7732.6268 1.4 1.4 1.4h11.2c.7732 0 1.4-.6268 1.4-1.4v-11.2c0-.7732-.6268-1.4-1.4-1.4z" fill="#9a9996"/>
  <path d="m3.98828 4.00007c-.26317.00311-.51451.10983-.69951.29703-.18501.1872-.28876.43978-.28877.70297v5.33403c.00004.1809.04919.3585.14221.5138.09302.1552.22642.2823.38599.3677s.33932.1259.52009.1172.35579-.0664.5064-.1667l3.44531-2.29689 3.4453 2.29689c.1506.1003.3256.158.5064.1667s.3605-.0318.5201-.1172.293-.2125.386-.3677c.093-.1553.1422-.3329.1422-.5138v-5.33403c0-.18099-.0492-.35857-.1422-.51381-.093-.15525-.2264-.28235-.386-.36775-.1596-.08539-.3393-.12589-.5201-.11717s-.3558.06633-.5064.1667l-3.4453 2.29687-3.44531-2.29687c-.16758-.11175-.365-.1703-.56641-.16797zm1.01172 2.86914 1.19727.79687-1.19727.79883zm6 0v1.5957l-1.19727-.79883z" fill="#fff"/>
</svg>

<svg xmlns="http://www.w3.org/2000/svg" fill="none" width="16" height="16" viewBox="0 0 16 16">
 <path fill="url(#paint0_linear)" d="M13.6 1H2.4C1.6268 1 1 1.6268 1 2.4V13.6C1 14.3732 1.6268 15 2.4 15H13.6C14.3732 15 15 14.3732 15 13.6V2.4C15 1.6268 14.3732 1 13.6 1Z"/>
 <path fill="#fff" d="M3.98828 4.00007C3.72511 4.00318 3.47377 4.1099 3.28877 4.2971C3.10376 4.4843 3.00001 4.73688 3 5.00007V10.3341C3.00004 10.515 3.04919 10.6926 3.14221 10.8479C3.23523 11.0031 3.36863 11.1302 3.5282 11.2156C3.68777 11.301 3.86752 11.3415 4.04829 11.3328C4.22906 11.3241 4.40408 11.2664 4.55469 11.1661L8 8.86921L11.4453 11.1661C11.5959 11.2664 11.7709 11.3241 11.9517 11.3328C12.1325 11.3415 12.3122 11.301 12.4718 11.2156C12.6314 11.1302 12.7648 11.0031 12.8578 10.8479C12.9508 10.6926 13 10.515 13 10.3341V5.00007C13 4.81908 12.9508 4.6415 12.8578 4.48626C12.7648 4.33101 12.6314 4.20391 12.4718 4.11851C12.3122 4.03312 12.1325 3.99262 11.9517 4.00134C11.7709 4.01006 11.5959 4.06767 11.4453 4.16804L8 6.46491L4.55469 4.16804C4.38711 4.05629 4.18969 3.99774 3.98828 4.00007V4.00007ZM5 6.86921L6.19727 7.66608L5 8.46491V6.86921ZM11 6.86921V8.46491L9.80273 7.66608L11 6.86921Z"/>
 <defs>
  <linearGradient id="paint0_linear" x1="1" x2="15" y1="8" y2="8" gradientUnits="userSpaceOnUse">
   <stop stop-color="#9A9996"/>
  </linearGradient>
 </defs>
</svg>
